vessel_track/img/PSSA-ico.svg

<svg width="30" height="8" viewBox="0 0 30 8" fill="none" xmlns="http://www.w3.org/2000/svg">
<path d="M0.333313 0.132596H3.5245C4.64338 0.132596 5.47467 0.36464 6.01835 0.828729C6.56204 1.28545 6.83388 1.90055 6.83388 2.67403C6.83388 3.44751 6.56204 4.0663 6.01835 4.53039C5.47467 4.98711 4.64338 5.21547 3.5245 5.21547H2.10619V7.8674H0.333313V0.132596ZM3.34721 3.8453C3.97757 3.8453 4.41882 3.74586 4.67096 3.54696C4.93098 3.34807 5.061 3.05709 5.061 2.67403C5.061 2.29834 4.93098 2.01105 4.67096 1.81215C4.41882 1.60589 3.97757 1.50276 3.34721 1.50276H2.10619V3.8453H3.34721Z" fill="white"/>
<path d="M10.779 8C9.68375 8 8.85641 7.79006 8.29696 7.37017C7.73752 6.95028 7.44204 6.39779 7.41052 5.71271H9.18341C9.21492 5.86004 9.2622 5.98895 9.32524 6.09945C9.38827 6.20995 9.48282 6.30203 9.6089 6.37569C9.73497 6.44936 9.89256 6.50829 10.0817 6.55249C10.2708 6.58932 10.5032 6.60774 10.779 6.60774C11.3463 6.60774 11.7521 6.53775 11.9964 6.39779C12.2485 6.25046 12.3746 6.0442 12.3746 5.77901C12.3746 5.45488 12.2091 5.21179 11.8782 5.04972C11.5551 4.8803 11.0351 4.72928 10.318 4.59669C9.89256 4.52302 9.51434 4.42726 9.18341 4.30939C8.85247 4.18416 8.57275 4.02947 8.34424 3.8453C8.11574 3.65377 7.94239 3.42541 7.8242 3.16022C7.706 2.89503 7.64691 2.57827 7.64691 2.20994C7.64691 1.87845 7.71782 1.57643 7.85965 1.30387C8.00936 1.03131 8.21817 0.799263 8.48607 0.607734C8.76185 0.408839 9.09279 0.257828 9.47889 0.154697C9.86498 0.051566 10.2984 0 10.779 0C11.299 0 11.7482 0.051566 12.1264 0.154697C12.5046 0.257828 12.8198 0.405157 13.0719 0.596685C13.3319 0.788214 13.5289 1.01658 13.6629 1.28177C13.7968 1.54696 13.8796 1.8453 13.9111 2.17679H12.1382C12.0831 1.9116 11.957 1.71639 11.76 1.59116C11.563 1.45856 11.236 1.39227 10.779 1.39227C10.3141 1.39227 9.97135 1.46225 9.75073 1.60221C9.5301 1.74217 9.41979 1.93002 9.41979 2.16575C9.41979 2.44567 9.5695 2.67035 9.86892 2.83978C10.1762 3.00184 10.6569 3.1418 11.3109 3.25967C11.76 3.3407 12.1579 3.44015 12.5046 3.55801C12.8592 3.67588 13.1547 3.82689 13.391 4.01105C13.6353 4.19521 13.8205 4.42357 13.9465 4.69613C14.0805 4.96133 14.1475 5.28177 14.1475 5.65746C14.1475 6.37201 13.852 6.94291 13.261 7.37017C12.6779 7.79006 11.8506 8 10.779 8Z" fill="white"/>
<path d="M18.2122 8C17.1169 8 16.2896 7.79006 15.7301 7.37017C15.1707 6.95028 14.8752 6.39779 14.8437 5.71271H16.6166C16.6481 5.86004 16.6954 5.98895 16.7584 6.09945C16.8214 6.20995 16.916 6.30203 17.0421 6.37569C17.1681 6.44936 17.3257 6.50829 17.5148 6.55249C17.7039 6.58932 17.9364 6.60774 18.2122 6.60774C18.7795 6.60774 19.1853 6.53775 19.4296 6.39779C19.6817 6.25046 19.8078 6.0442 19.8078 5.77901C19.8078 5.45488 19.6423 5.21179 19.3114 5.04972C18.9883 4.8803 18.4683 4.72928 17.7512 4.59669C17.3257 4.52302 16.9475 4.42726 16.6166 4.30939C16.2856 4.18416 16.0059 4.02947 15.7774 3.8453C15.5489 3.65377 15.3756 3.42541 15.2574 3.16022C15.1392 2.89503 15.0801 2.57827 15.0801 2.20994C15.0801 1.87845 15.151 1.57643 15.2928 1.30387C15.4425 1.03131 15.6513 0.799263 15.9192 0.607734C16.195 0.408839 16.526 0.257828 16.9121 0.154697C17.2982 0.051566 17.7315 0 18.2122 0C18.7322 0 19.1813 0.051566 19.5596 0.154697C19.9378 0.257828 20.253 0.405157 20.5051 0.596685C20.7651 0.788214 20.9621 1.01658 21.0961 1.28177C21.23 1.54696 21.3127 1.8453 21.3443 2.17679H19.5714C19.5162 1.9116 19.3902 1.71639 19.1932 1.59116C18.9962 1.45856 18.6692 1.39227 18.2122 1.39227C17.7473 1.39227 17.4045 1.46225 17.1839 1.60221C16.9633 1.74217 16.853 1.93002 16.853 2.16575C16.853 2.44567 17.0027 2.67035 17.3021 2.83978C17.6094 3.00184 18.09 3.1418 18.744 3.25967C19.1932 3.3407 19.5911 3.44015 19.9378 3.55801C20.2924 3.67588 20.5878 3.82689 20.8242 4.01105C21.0685 4.19521 21.2536 4.42357 21.3797 4.69613C21.5137 4.96133 21.5806 5.28177 21.5806 5.65746C21.5806 6.37201 21.2852 6.94291 20.6942 7.37017C20.1111 7.79006 19.2838 8 18.2122 8Z" fill="white"/>
<path d="M27.161 6.28729H24.0998L23.4734 7.8674H21.7478L24.8208 0.132596H26.5937L29.6666 7.8674H27.7992L27.161 6.28729ZM24.6435 4.91713H26.6291L25.6363 2.23204L24.6435 4.91713Z" fill="white"/>
</svg>

<svg width="30" height="8" fill="none" xmlns="http://www.w3.org/2000/svg"><path d="M.333.133h3.192c1.118 0 1.95.232 2.493.696.544.456.816 1.072.816 1.845 0 .774-.272 1.392-.816 1.856-.543.457-1.375.685-2.493.685H2.106v2.652H.333V.133zm3.014 3.712c.63 0 1.072-.1 1.324-.298.26-.199.39-.49.39-.873 0-.376-.13-.663-.39-.862-.252-.206-.693-.31-1.324-.31h-1.24v2.343h1.24zM10.779 8c-1.095 0-1.923-.21-2.482-.63-.56-.42-.855-.972-.886-1.657h1.772c.032.147.08.276.142.386.063.11.158.203.284.277.126.073.284.132.473.176.189.037.421.056.697.056.567 0 .973-.07 1.217-.21.252-.148.379-.354.379-.619 0-.324-.166-.567-.497-.73-.323-.169-.843-.32-1.56-.452a6.907 6.907 0 01-1.135-.288 3.06 3.06 0 01-.839-.464 1.887 1.887 0 01-.52-.685 2.322 2.322 0 01-.177-.95c0-.332.07-.634.213-.906.15-.273.358-.505.626-.696.276-.2.607-.35.993-.453.386-.103.82-.155 1.3-.155.52 0 .97.052 1.347.155.379.103.694.25.946.442.26.191.457.42.59.685.135.265.218.563.25.895h-1.774c-.055-.265-.181-.46-.378-.586-.197-.132-.524-.199-.981-.199-.465 0-.808.07-1.028.21-.22.14-.331.328-.331.564 0 .28.15.504.449.674.307.162.788.302 1.442.42.449.08.847.18 1.194.298.354.118.65.269.886.453.244.184.43.413.556.685.134.265.2.586.2.961 0 .715-.295 1.286-.886 1.713-.583.42-1.41.63-2.482.63zm7.433 0c-1.095 0-1.922-.21-2.482-.63-.56-.42-.855-.972-.886-1.657h1.773c.031.147.078.276.141.386.063.11.158.203.284.277.126.073.284.132.473.176.189.037.421.056.697.056.567 0 .973-.07 1.218-.21.252-.148.378-.354.378-.619 0-.324-.166-.567-.497-.73-.323-.169-.843-.32-1.56-.452a6.905 6.905 0 01-1.134-.288 3.042 3.042 0 01-.84-.464 1.887 1.887 0 01-.52-.685 2.322 2.322 0 01-.177-.95c0-.332.071-.634.213-.906.15-.273.358-.505.626-.696.276-.2.607-.35.993-.453a5.04 5.04 0 011.3-.155c.52 0 .97.052 1.348.155.378.103.693.25.945.442.26.191.457.42.591.685.134.265.217.563.248.895h-1.773c-.055-.265-.18-.46-.378-.586-.197-.132-.524-.199-.98-.199-.466 0-.809.07-1.03.21-.22.14-.33.328-.33.564 0 .28.15.504.45.674.306.162.787.302 1.441.42.45.08.847.18 1.194.298.354.118.65.269.886.453.244.184.43.413.556.685.134.265.2.586.2.961 0 .715-.295 1.286-.886 1.713-.583.42-1.41.63-2.482.63zm8.949-1.713H24.1l-.627 1.58h-1.725L24.82.133h1.773l3.073 7.734h-1.868l-.638-1.58zm-2.518-1.37h1.986l-.993-2.685-.992 2.685z" fill="#fff"/></svg>
